release/img/icons/in.svg

<svg width="22" height="22" viewBox="0 0 22 22" fill="none" xmlns="http://www.w3.org/2000/svg">
<path d="M11.5017 7.65419C9.3734 7.65419 7.65672 9.37125 7.65672 11.5C7.65672 13.6288 9.3734 15.3458 11.5017 15.3458C13.63 15.3458 15.3466 13.6288 15.3466 11.5C15.3466 9.37125 13.63 7.65419 11.5017 7.65419ZM11.5017 14.0003C10.1263 14.0003 9.00195 12.879 9.00195 11.5C9.00195 10.121 10.123 8.99972 11.5017 8.99972C12.8804 8.99972 14.0014 10.121 14.0014 11.5C14.0014 12.879 12.877 14.0003 11.5017 14.0003V14.0003ZM16.4007 7.49688C16.4007 7.99559 15.9992 8.3939 15.5039 8.3939C15.0053 8.3939 14.6071 7.99225 14.6071 7.49688C14.6071 7.00151 15.0086 6.59985 15.5039 6.59985C15.9992 6.59985 16.4007 7.00151 16.4007 7.49688ZM18.9473 8.40729C18.8904 7.20568 18.616 6.1413 17.7359 5.26436C16.8592 4.38743 15.795 4.11296 14.5937 4.05272C13.3556 3.98243 9.64445 3.98243 8.4063 4.05272C7.20831 4.10962 6.14417 4.38408 5.26408 5.26102C4.38399 6.13796 4.11294 7.20233 4.0527 8.40394C3.98243 9.64236 3.98243 13.3543 4.0527 14.5927C4.10959 15.7943 4.38399 16.8587 5.26408 17.7356C6.14417 18.6126 7.20496 18.887 8.4063 18.9473C9.64445 19.0176 13.3556 19.0176 14.5937 18.9473C15.795 18.8904 16.8592 18.6159 17.7359 17.7356C18.6127 16.8587 18.8871 15.7943 18.9473 14.5927C19.0176 13.3543 19.0176 9.64571 18.9473 8.40729V8.40729ZM17.3477 15.9215C17.0867 16.5775 16.5814 17.083 15.9222 17.3474C14.935 17.739 12.5926 17.6486 11.5017 17.6486C10.4108 17.6486 8.06497 17.7356 7.08115 17.3474C6.42526 17.0863 5.91997 16.5809 5.65561 15.9215C5.26408 14.9341 5.35443 12.5912 5.35443 11.5C5.35443 10.4088 5.26743 8.06253 5.65561 7.07849C5.91662 6.42246 6.42192 5.91705 7.08115 5.65263C8.06832 5.26102 10.4108 5.35139 11.5017 5.35139C12.5926 5.35139 14.9384 5.26436 15.9222 5.65263C16.5781 5.9137 17.0834 6.41911 17.3477 7.07849C17.7393 8.06588 17.6489 10.4088 17.6489 11.5C17.6489 12.5912 17.7393 14.9375 17.3477 15.9215Z" fill="white"/>
</svg>

<svg width="22" height="22" fill="none" xmlns="http://www.w3.org/2000/svg"><path d="M11.502 7.654A3.84 3.84 0 007.657 11.5a3.84 3.84 0 003.845 3.846 3.84 3.84 0 003.845-3.846 3.84 3.84 0 00-3.845-3.846zm0 6.346a2.505 2.505 0 01-2.5-2.5c0-1.379 1.121-2.5 2.5-2.5 1.378 0 2.5 1.121 2.5 2.5s-1.125 2.5-2.5 2.5zM16.4 7.497a.895.895 0 01-.897.897.897.897 0 11.897-.897zm2.546.91c-.057-1.201-.331-2.266-1.211-3.143-.877-.877-1.941-1.151-3.142-1.211-1.238-.07-4.95-.07-6.188 0-1.198.057-2.262.331-3.142 1.208-.88.877-1.151 1.941-1.211 3.143-.07 1.238-.07 4.95 0 6.189.057 1.201.331 2.266 1.211 3.143.88.877 1.941 1.151 3.142 1.211 1.238.07 4.95.07 6.188 0 1.201-.057 2.265-.331 3.142-1.211.877-.877 1.151-1.942 1.211-3.143.07-1.239.07-4.947 0-6.186zm-1.6 7.514a2.531 2.531 0 01-1.425 1.426c-.987.392-3.33.302-4.42.302-1.091 0-3.437.087-4.42-.302a2.531 2.531 0 01-1.426-1.426c-.392-.987-.302-3.33-.302-4.421 0-1.091-.087-3.437.302-4.422A2.531 2.531 0 017.08 5.653c.987-.392 3.33-.302 4.42-.302 1.092 0 3.437-.087 4.421.302a2.53 2.53 0 011.426 1.425c.391.988.3 3.33.3 4.422 0 1.091.091 3.438-.3 4.421z" fill="#fff"/></svg>
